assets/images/svg/servicemen-app.svg

<svg width="24" height="24" viewBox="0 0 24 24" fill="none" xmlns="http://www.w3.org/2000/svg">
<g clip-path="url(#clip0_432_13031)">
<path d="M10.2711 11.4762C13.2513 11.4762 15.6672 9.13102 15.6672 6.2381C15.6672 3.34518 13.2513 1 10.2711 1C7.29091 1 4.875 3.34518 4.875 6.2381C4.875 9.13102 7.29091 11.4762 10.2711 11.4762Z" stroke="#F58218" stroke-width="1.5" stroke-linecap="round" stroke-linejoin="round"/>
<path d="M1 21.9525C1 17.8982 5.15499 14.6191 10.2705 14.6191C10.6355 14.6191 10.9957 14.6358 11.3498 14.6683" stroke="#F58218" stroke-width="1.5" stroke-linecap="round" stroke-linejoin="round"/>
<path d="M18.6887 13.4349C18.7728 13.4349 18.8417 13.4929 18.8532 13.5727L18.9756 14.5404C18.9948 14.6999 19.1057 14.834 19.2664 14.8956C19.6069 15.0188 19.9245 15.1928 20.2076 15.4103C20.2879 15.4719 20.3912 15.5082 20.4945 15.5082C20.5558 15.5082 20.617 15.4937 20.6744 15.4719L21.6232 15.0913C21.6423 15.0841 21.6653 15.0805 21.6882 15.0768C21.7456 15.0768 21.803 15.1058 21.8298 15.153L22.5185 16.2838C22.5606 16.3527 22.5414 16.4397 22.4764 16.4868L21.6538 17.0703C21.5199 17.1682 21.451 17.3277 21.4778 17.4835C21.5352 17.8242 21.5352 18.1722 21.4778 18.5165C21.451 18.676 21.5199 18.8354 21.6538 18.9297L22.4764 19.5132C22.5414 19.5603 22.5606 19.6473 22.5185 19.7162L21.8298 20.847C21.7992 20.8942 21.7456 20.9268 21.6882 20.9268C21.6653 20.9268 21.6462 20.9232 21.6232 20.9123L20.6782 20.5317C20.6208 20.51 20.5596 20.4955 20.4984 20.4955C20.3951 20.4955 20.2918 20.5281 20.2114 20.5933C19.9283 20.8108 19.6107 20.9848 19.2702 21.108C19.1134 21.166 19.0024 21.3001 18.9795 21.4632L18.857 22.431C18.8455 22.5107 18.7767 22.5687 18.6925 22.5687H17.3113C17.2272 22.5687 17.1583 22.5107 17.1468 22.431L17.0244 21.4632C17.0052 21.3037 16.8905 21.166 16.7336 21.108C16.3931 20.9848 16.0755 20.8108 15.7924 20.5933C15.6585 20.4918 15.4787 20.4701 15.3256 20.5317L14.3768 20.9123C14.3577 20.9195 14.3347 20.9232 14.3118 20.9268C14.2544 20.9268 14.197 20.8978 14.1702 20.847L13.4815 19.7162C13.4394 19.6473 13.4586 19.5603 13.5236 19.5132L14.3462 18.9297C14.4801 18.8318 14.549 18.6723 14.5222 18.5165C14.4648 18.1758 14.4648 17.8278 14.5222 17.4835C14.549 17.324 14.4801 17.1646 14.3462 17.0703L13.5236 16.4868C13.4586 16.4397 13.4394 16.3527 13.4815 16.2838L14.1702 15.153C14.2008 15.1058 14.2544 15.0768 14.3118 15.0768C14.3347 15.0768 14.3538 15.0805 14.3768 15.0913L15.3256 15.4719C15.4825 15.5335 15.6623 15.5118 15.7924 15.4103C16.0755 15.1928 16.3931 15.0188 16.7336 14.8956C16.8905 14.8376 17.0052 14.7035 17.0244 14.5404L17.1506 13.5763C17.1621 13.4966 17.231 13.4386 17.3151 13.4386L18.6887 13.4349ZM18 19.8503C19.0789 19.8503 19.9513 19.0239 19.9513 18.0018C19.9513 16.9797 19.0789 16.1533 18 16.1533C16.9211 16.1533 16.0487 16.9797 16.0487 18.0018C16.0526 19.0203 16.9249 19.8467 18 19.8503ZM18.6887 13H17.3075C16.9938 13 16.7259 13.2247 16.6877 13.5183L16.5653 14.486C16.1788 14.6274 15.823 14.8231 15.5016 15.0696L14.5566 14.689C14.2658 14.573 13.9292 14.6781 13.7723 14.9355L13.0836 16.0663C12.9267 16.3237 12.9956 16.6535 13.2481 16.8347L14.0707 17.4183C14.0057 17.8025 14.0057 18.1975 14.0707 18.5817L13.2481 19.1653C12.9956 19.3465 12.9267 19.6763 13.0836 19.9337L13.7723 21.0645C13.9292 21.3219 14.2658 21.4306 14.5566 21.3146L15.5016 20.9304C15.823 21.1769 16.1827 21.3726 16.5653 21.514L16.6877 22.4817C16.7259 22.7789 16.9899 23 17.3075 23H18.6887C19.0024 23 19.2702 22.7753 19.3085 22.4817L19.4309 21.514C19.8135 21.3726 20.1732 21.1769 20.4945 20.9304L21.4396 21.311C21.7303 21.427 22.067 21.3219 22.2239 21.0609L22.9126 19.93C23.0694 19.6727 23.0006 19.3429 22.748 19.1617L21.9293 18.5854C21.9943 18.2012 21.9943 17.8061 21.9293 17.4219L22.7519 16.8383C23.0044 16.6607 23.0733 16.3309 22.9164 16.07L22.2277 14.9391C22.0708 14.6818 21.7342 14.573 21.4434 14.6926L20.4984 15.0732C20.177 14.8267 19.8173 14.631 19.4347 14.4897L19.3123 13.5219C19.2702 13.2211 19.0024 13 18.6887 13ZM18 19.4154C17.1774 19.4154 16.5079 18.7811 16.5079 18.0018C16.5079 17.2225 17.1774 16.5883 18 16.5883C18.8226 16.5883 19.4921 17.2225 19.4921 18.0018C19.4921 18.7811 18.8264 19.4154 18 19.4154Z" fill="#F58218"/>
<path d="M15.7924 15.4103C15.6623 15.5118 15.4825 15.5335 15.3256 15.4719L14.3768 15.0913C14.3538 15.0805 14.3347 15.0768 14.3118 15.0768C14.2544 15.0768 14.2008 15.1058 14.1702 15.153L13.4815 16.2838C13.4394 16.3527 13.4586 16.4397 13.5236 16.4868L14.3462 17.0703C14.4801 17.1646 14.549 17.324 14.5222 17.4835C14.4648 17.8278 14.4648 18.1758 14.5222 18.5165C14.549 18.6723 14.4801 18.8318 14.3462 18.9297L13.5236 19.5132C13.4586 19.5603 13.4394 19.6473 13.4815 19.7162L14.1702 20.847C14.197 20.8978 14.2544 20.9268 14.3118 20.9268C14.3347 20.9232 14.3577 20.9195 14.3768 20.9123L15.3256 20.5317C15.4787 20.4701 15.6585 20.4918 15.7924 20.5933C16.0755 20.8108 16.3931 20.9848 16.7336 21.108C16.8905 21.166 17.0052 21.3037 17.0244 21.4632L17.1468 22.431C17.1583 22.5107 17.2272 22.5687 17.3113 22.5687H18.6925C18.7767 22.5687 18.8455 22.5107 18.857 22.431L18.9795 21.4632C19.0024 21.3001 19.1134 21.166 19.2702 21.108C19.6107 20.9848 19.9283 20.8108 20.2114 20.5933C20.2918 20.5281 20.3951 20.4955 20.4984 20.4955C20.5596 20.4955 20.6208 20.51 20.6782 20.5317L21.6232 20.9123C21.6462 20.9232 21.6653 20.9268 21.6882 20.9268C21.7456 20.9268 21.7992 20.8942 21.8298 20.847L22.5185 19.7162C22.5606 19.6473 22.5414 19.5603 22.4764 19.5132L21.6538 18.9297C21.5199 18.8354 21.451 18.676 21.4778 18.5165C21.5352 18.1722 21.5352 17.8242 21.4778 17.4835C21.451 17.3277 21.5199 17.1682 21.6538 17.0703L22.4764 16.4868C22.5414 16.4397 22.5606 16.3527 22.5185 16.2838L21.8298 15.153C21.803 15.1058 21.7456 15.0768 21.6882 15.0768C21.6653 15.0805 21.6423 15.0841 21.6232 15.0913L20.6744 15.4719C20.617 15.4937 20.5558 15.5082 20.4945 15.5082C20.3912 15.5082 20.2879 15.4719 20.2076 15.4103C19.9245 15.1928 19.6069 15.0188 19.2664 14.8956C19.1057 14.834 18.9948 14.6999 18.9756 14.5404L18.8532 13.5727C18.8417 13.4929 18.7728 13.4349 18.6887 13.4349L17.3151 13.4386C17.231 13.4386 17.1621 13.4966 17.1506 13.5763L17.0244 14.5404C17.0052 14.7035 16.8905 14.8376 16.7336 14.8956C16.3931 15.0188 16.0755 15.1928 15.7924 15.4103ZM15.7924 15.4103L15.5016 15.0696M15.5016 15.0696C15.823 14.8231 16.1788 14.6274 16.5653 14.486L16.6877 13.5183C16.7259 13.2247 16.9938 13 17.3075 13H18.6887C19.0024 13 19.2702 13.2211 19.3123 13.5219L19.4347 14.4897C19.8173 14.631 20.177 14.8267 20.4984 15.0732L21.4434 14.6926C21.7342 14.573 22.0708 14.6818 22.2277 14.9391L22.9164 16.07C23.0733 16.3309 23.0044 16.6607 22.7519 16.8383L21.9293 17.4219C21.9943 17.8061 21.9943 18.2012 21.9293 18.5854L22.748 19.1617C23.0006 19.3429 23.0694 19.6727 22.9126 19.93L22.2239 21.0609C22.067 21.3219 21.7303 21.427 21.4396 21.311L20.4945 20.9304C20.1732 21.1769 19.8135 21.3726 19.4309 21.514L19.3085 22.4817C19.2702 22.7753 19.0024 23 18.6887 23H17.3075C16.9899 23 16.7259 22.7789 16.6877 22.4817L16.5653 21.514C16.1827 21.3726 15.823 21.1769 15.5016 20.9304L14.5566 21.3146C14.2658 21.4306 13.9292 21.3219 13.7723 21.0645L13.0836 19.9337C12.9267 19.6763 12.9956 19.3465 13.2481 19.1653L14.0707 18.5817C14.0057 18.1975 14.0057 17.8025 14.0707 17.4183L13.2481 16.8347C12.9956 16.6535 12.9267 16.3237 13.0836 16.0663L13.7723 14.9355C13.9292 14.6781 14.2658 14.573 14.5566 14.689L15.5016 15.0696ZM18 19.8503C19.0789 19.8503 19.9513 19.0239 19.9513 18.0018C19.9513 16.9797 19.0789 16.1533 18 16.1533C16.9211 16.1533 16.0487 16.9797 16.0487 18.0018C16.0526 19.0203 16.9249 19.8467 18 19.8503ZM18 19.4154C17.1774 19.4154 16.5079 18.7811 16.5079 18.0018C16.5079 17.2225 17.1774 16.5883 18 16.5883C18.8226 16.5883 19.4921 17.2225 19.4921 18.0018C19.4921 18.7811 18.8264 19.4154 18 19.4154Z" stroke="#F58218" stroke-width="0.8"/>
</g>
<defs>
<clipPath id="clip0_432_13031">
<rect width="24" height="24" fill="white"/>
</clipPath>
</defs>
</svg>

<svg xmlns="http://www.w3.org/2000/svg" width="24" height="24" fill="none" viewBox="0 0 24 24"><g clip-path="url(#a)"><path stroke="#f58218" stroke-linecap="round" stroke-linejoin="round" stroke-width="1.5" d="M10.271 11.476c2.98 0 5.396-2.345 5.396-5.238S13.251 1 10.271 1 4.875 3.345 4.875 6.238s2.416 5.238 5.396 5.238M1 21.953c0-4.055 4.155-7.334 9.27-7.334q.549 0 1.08.05"/><path fill="#f58218" d="M18.689 13.435c.084 0 .153.058.164.138l.123.967c.019.16.13.294.29.356a3.5 3.5 0 0 1 .942.514c.08.062.183.098.287.098a.5.5 0 0 0 .18-.036l.948-.38q.03-.01.065-.015c.058 0 .115.029.142.076l.689 1.13a.15.15 0 0 1-.043.204l-.822.583a.43.43 0 0 0-.176.413c.057.341.057.69 0 1.034a.42.42 0 0 0 .176.413l.822.583a.15.15 0 0 1 .043.203l-.69 1.131a.17.17 0 0 1-.14.08.14.14 0 0 1-.066-.015l-.945-.38a.5.5 0 0 0-.18-.037.46.46 0 0 0-.287.098 3.5 3.5 0 0 1-.94.515.45.45 0 0 0-.291.355l-.123.968a.163.163 0 0 1-.165.138h-1.38a.163.163 0 0 1-.165-.138l-.123-.968a.44.44 0 0 0-.29-.355 3.5 3.5 0 0 1-.942-.515.48.48 0 0 0-.466-.061l-.95.38a.3.3 0 0 1-.064.015.16.16 0 0 1-.142-.08l-.688-1.13a.15.15 0 0 1 .042-.204l.822-.583a.43.43 0 0 0 .176-.413 3.1 3.1 0 0 1 0-1.033.42.42 0 0 0-.176-.414l-.822-.583a.15.15 0 0 1-.042-.203l.688-1.131a.17.17 0 0 1 .142-.076q.033 0 .065.014l.949.38c.156.063.336.04.466-.06a3.5 3.5 0 0 1 .942-.515.44.44 0 0 0 .29-.356l.127-.964a.163.163 0 0 1 .164-.137zM18 19.85c1.079 0 1.951-.826 1.951-1.848S19.08 16.153 18 16.153s-1.951.827-1.951 1.849c.004 1.018.876 1.845 1.951 1.848m.689-6.85h-1.381c-.314 0-.582.225-.62.518l-.123.968a4 4 0 0 0-1.063.584l-.945-.381a.64.64 0 0 0-.785.246l-.688 1.131a.57.57 0 0 0 .164.769l.823.583c-.065.384-.065.78 0 1.164l-.823.583a.57.57 0 0 0-.164.769l.688 1.13a.644.644 0 0 0 .785.25l.945-.384c.321.247.68.443 1.063.584l.123.968a.61.61 0 0 0 .62.518h1.38a.62.62 0 0 0 .62-.518l.123-.968a4 4 0 0 0 1.063-.584l.946.381a.64.64 0 0 0 .784-.25l.689-1.131a.57.57 0 0 0-.165-.768l-.819-.577c.065-.384.065-.779 0-1.163l.823-.584a.57.57 0 0 0 .164-.768l-.688-1.13a.64.64 0 0 0-.785-.247l-.945.38a4 4 0 0 0-1.063-.583l-.123-.968A.62.62 0 0 0 18.69 13M18 19.415c-.823 0-1.492-.634-1.492-1.413 0-.78.67-1.414 1.492-1.414.823 0 1.492.634 1.492 1.414s-.666 1.413-1.492 1.413"/><path stroke="#f58218" stroke-width=".8" d="M15.792 15.41a.48.48 0 0 1-.466.062l-.95-.38a.14.14 0 0 0-.064-.015.17.17 0 0 0-.142.076l-.688 1.13a.15.15 0 0 0 .042.204l.822.583a.42.42 0 0 1 .176.413 3.1 3.1 0 0 0 0 1.034.43.43 0 0 1-.176.413l-.822.583a.15.15 0 0 0-.042.203l.688 1.131a.16.16 0 0 0 .142.08.3.3 0 0 0 .065-.015l.949-.38a.48.48 0 0 1 .466.061c.284.218.601.392.942.515a.44.44 0 0 1 .29.355l.123.968c.011.08.08.138.164.138h1.381a.163.163 0 0 0 .165-.138l.123-.968a.45.45 0 0 1 .29-.355 3.5 3.5 0 0 0 .941-.515.46.46 0 0 1 .287-.098c.062 0 .123.015.18.037l.945.38c.023.011.042.015.065.015a.17.17 0 0 0 .142-.08l.689-1.13a.15.15 0 0 0-.043-.204l-.822-.583a.42.42 0 0 1-.176-.413 3.1 3.1 0 0 0 0-1.033.43.43 0 0 1 .176-.414l.822-.583a.15.15 0 0 0 .043-.203l-.69-1.131a.16.16 0 0 0-.14-.076q-.037.005-.066.014l-.949.38a.5.5 0 0 1-.18.037.48.48 0 0 1-.286-.098 3.5 3.5 0 0 0-.942-.514.44.44 0 0 1-.29-.356l-.123-.967a.163.163 0 0 0-.164-.138l-1.374.004a.163.163 0 0 0-.164.137l-.127.964a.44.44 0 0 1-.29.356 3.5 3.5 0 0 0-.942.514Zm0 0-.29-.34m0 0a4 4 0 0 1 1.063-.584l.123-.968c.038-.293.306-.518.62-.518h1.38a.62.62 0 0 1 .624.522l.123.968c.382.141.742.337 1.063.583l.945-.38c.291-.12.628-.011.785.246l.688 1.131a.57.57 0 0 1-.164.768l-.823.584c.065.384.065.78 0 1.163l.819.577a.57.57 0 0 1 .165.768l-.69 1.13a.64.64 0 0 1-.783.251l-.946-.38a4 4 0 0 1-1.063.583l-.123.968a.62.62 0 0 1-.62.518h-1.38a.61.61 0 0 1-.62-.518l-.123-.968a4 4 0 0 1-1.063-.584l-.945.385a.644.644 0 0 1-.785-.25l-.688-1.131a.57.57 0 0 1 .164-.769l.823-.583a3.5 3.5 0 0 1 0-1.164l-.823-.583a.57.57 0 0 1-.164-.769l.688-1.13a.64.64 0 0 1 .785-.247zM18 19.85c1.079 0 1.951-.826 1.951-1.848S19.08 16.153 18 16.153s-1.951.827-1.951 1.849c.004 1.018.876 1.845 1.951 1.848Zm0-.435c-.823 0-1.492-.634-1.492-1.413 0-.78.67-1.414 1.492-1.414.823 0 1.492.634 1.492 1.414s-.666 1.413-1.492 1.413Z"/></g><defs><clipPath id="a"><path fill="#fff" d="M0 0h24v24H0z"/></clipPath></defs></svg>
